X:4
T:Reel de Bellechasse
R:reel
O:Qubec
Q:1/4=200
S:Dominique Renaudin <domren:free.fr> QueTrad 2002-11-26
M:4/4
L:1/8
K:D
A Bc | d2 fd cd ec | de fd A2 dc | BB gf ed cB |
Aa aA aA Bc | d2 fd cd ec | de fd A2 dc | BB gf ed cB |
Af ec d :: Ad | [f2F2] fg fe dc | Bg gB gg Ac |
ed ef ed cB | Aa aA a2 AB | [f2F2] fg fe dc | Bg gB gg AB |
ed ef ed cB | Af ec d :|
